Yaru++/apps/16/flatpak.svg

<svg height="16" width="16" xmlns="http://www.w3.org/2000/svg">
  <path d="m7.9153813.49996228-6.7153813 3.61602512v.2864882 7.4814984l6.7153813 3.616026 6.7153827-3.616026v-7.7679488zm0 1.08956222 5.2241437 2.8129133-5.2241437 2.8129134-5.2241423-2.8129134z" fill="#808080" fill-rule="evenodd"/>
</svg>

<svg xmlns="http://www.w3.org/2000/svg" width="16" height="16" version="1.1">
 <path style="fill:#808080;fill-rule:evenodd" d="M 7.9153813,0.49996228 1.2,4.1159874 V 4.4024756 11.883974 L 7.9153813,15.5 14.630764,11.883974 V 4.1160252 Z m 0,1.08956222 L 13.139525,4.4024378 7.9153813,7.2153512 2.691239,4.4024378 Z"/>
</svg>
